X:1
T:Romance Anonimo
T:Romance Anonimo
T:Anonymous Arr. Antonio Romo
C:Anonymous
Z:Arr. Antonio Romo
%%score { 1 | 2 }
L:1/8
Q:1/4=110
M:3/4
K:G
V:1 treble nm="Piano" snm="Pno."
V:2 bass 
V:1
"^Moderato" (3BGE (3BGE (3BGE | (3BGE (3AEB, (3GEB, | (3GB,G, (3FB,G, (3EB,G, | %3
 (3EB,G, (3GEB, (3BGE | (3eBG (3eBG (3eBG | (3eBG (3dGE (3cGE | (3cEC (3BEC (3AEC | %7
 (3AEC (3BEC (3cEC | (3BF^D (3cFD (3BFD | (3^dF^D (3cFD (3BFD | (3BEB, (3AEB, (3GEB, | %11
 (3GB,G, (3FB,G, (3EB,G, | (3FB,A, (3FB,A, (3FB,A, | (3FB,A, (3GB,A, (3FB,A, | %14
[Q:1/4=100] (3EB,G, (3EB,G, (3EB,G, | E6!fine! ::[K:E][Q:1/4=110] (3GB,G, (3GB,G, (3GB,G, | %17
 (3GB,G, (3FB,G, (3EB,G, | (3EA,F, (3DA,F, (3DA,F, | (3DA,F, (3=DA,F, (3^DA,F, | %20
 (3cFD (3cFD (3cFD | (3cFD (3dFD (3cFD | (3cGE (3BGE (3^AGE | (3BGE (3cGE (3dGE | %24
 (3eGE (3eGE (3eGE | (3eGE (3dGE (3=dGE | (3cEC (3cEC (3cEC | (3cEC (3BEC (3AEC | %28
 (3GDB, (3GDB, (3GDB, | (3GDB, (3ADB, (3FDB, |[Q:1/4=100] (3EB,G, (3EB,G, (3EB,G, |1 E6 :|2 %32
 E6!D.C.! |] %33
V:2
!ped! E,,2 B,,2 E,2!ped-up! |!ped! E,,2 B,,2 E,2!ped-up! |!ped! E,,2 B,,2 E,2!ped-up! | %3
!ped! E,,2 B,,2 E,2!ped-up! |!ped! E,,2 B,,2 E,2!ped-up! |!ped! E,,2 B,,2 E,2!ped-up! | %6
!ped! A,,2 E,2 A,2!ped-up! |!ped! C,2 E,2 A,2!ped-up! |!ped! B,,2 F,2 B,2!ped-up! | %9
!ped! B,,,2 F,2 B,2!ped-up! |!ped! E,,2 B,,2 E,2!ped-up! |!ped! G,,2 B,,2 E,2!ped-up! | %12
!ped! B,,2 ^D,2 F,2!ped-up! |!ped! B,,,2 ^D,2 F,2!ped-up! |!ped! E,2 B,,2 G,,2!ped-up! | E,,6 :: %16
[K:E]!ped! E,,2 B,,2 E,2!ped-up! |!ped! E,,2 B,,2 E,2!ped-up! |!ped! F,,2 B,,2 D,2!ped-up! | %19
!ped! B,,,2 F,,2 B,,2!ped-up! |!ped! F,,2 B,,2 D,2!ped-up! |!ped! D,,2 B,,2 D,2!ped-up! | %22
!ped! E,,2 B,,2 E,2!ped-up! |!ped! G,,2 B,,2 E,2!ped-up! |!ped! E,,2 B,,2 E,2!ped-up! | %25
!ped! G,,2 B,,2 E,2!ped-up! |!ped! A,,2 E,2 A,2!ped-up! |!ped! C,2 E,2 A,2!ped-up! | %28
!ped! B,,2 D,2 F,2!ped-up! |!ped! B,,,2 D,2 F,2!ped-up! |!ped! E,2 B,,2 G,,2!ped-up! |1 %31
!ped! E,,6!ped-up! :|2!ped! E,,6!ped-up! |] %33

